Numix-GalliumOS/64/mimetypes/application-x-zoo.svg

<svg xmlns="http://www.w3.org/2000/svg" xmlns:xlink="http://www.w3.org/1999/xlink" width="64px" height="64px" viewBox="0 0 64 64" version="1.1">
<g id="surface1">
<path style=" stroke:none;fill-rule:nonzero;fill:rgb(75.686275%,58.431373%,32.54902%);fill-opacity:1;" d="M 10.671875 0 C 9.296875 0 8 1.355469 8 2.789062 L 8 61.210938 C 8 62.566406 9.375 64 10.671875 64 L 53.328125 64 C 54.625 64 56 62.566406 56 61.210938 L 56 18 L 38 0 Z M 10.671875 0 "/>
<path style=" stroke:none;fill-rule:nonzero;fill:rgb(0%,0%,0%);fill-opacity:0.196078;" d="M 8 48 L 8 61.335938 C 8 62.632812 9.375 64 10.664062 64 L 53.335938 64 C 54.625 64 56 62.632812 56 61.335938 L 56 48 Z M 8 48 "/>
<path style=" stroke:none;fill-rule:nonzero;fill:rgb(0%,0%,0%);fill-opacity:0.196078;" d="M 42 18 L 56 32 L 56 18 Z M 42 18 "/>
<path style=" stroke:none;fill-rule:nonzero;fill:rgb(100%,100%,100%);fill-opacity:1;" d="M 25.800781 52.789062 C 25.238281 53.550781 24.722656 54.261719 24.257812 54.929688 C 23.785156 55.601562 23.351562 56.238281 22.941406 56.851562 C 22.542969 57.449219 22.160156 58.027344 21.789062 58.589844 C 21.441406 59.148438 21.105469 59.695312 20.777344 60.234375 L 25.972656 60.234375 L 25.972656 61.988281 L 18 61.988281 L 18 60.765625 C 18.285156 60.273438 18.597656 59.75 18.921875 59.210938 C 19.25 58.664062 19.609375 58.078125 20.019531 57.457031 C 20.417969 56.835938 20.859375 56.15625 21.324219 55.429688 C 21.808594 54.710938 22.339844 53.917969 22.910156 53.070312 L 18.253906 53.070312 L 18.253906 51.304688 L 25.800781 51.304688 L 25.800781 52.789062 "/>
<path style=" stroke:none;fill-rule:nonzero;fill:rgb(100%,100%,100%);fill-opacity:0.392157;" d="M 38 0 L 55.984375 18 L 40.757812 18 C 39.410156 18 38 16.574219 38 15.226562 Z M 38 0 "/>
<path style=" stroke:none;fill-rule:nonzero;fill:rgb(100%,100%,100%);fill-opacity:1;" d="M 29.847656 56.640625 C 29.847656 57.160156 29.863281 57.652344 29.902344 58.109375 C 29.953125 58.558594 30.050781 58.949219 30.179688 59.285156 C 30.320312 59.621094 30.515625 59.882812 30.761719 60.078125 C 31.015625 60.273438 31.339844 60.371094 31.757812 60.371094 C 32.167969 60.371094 32.492188 60.273438 32.738281 60.078125 C 33 59.882812 33.195312 59.621094 33.328125 59.285156 C 33.464844 58.933594 33.554688 58.542969 33.597656 58.09375 C 33.644531 57.644531 33.675781 57.160156 33.675781 56.640625 C 33.675781 56.125 33.644531 55.640625 33.597656 55.191406 C 33.554688 54.726562 33.464844 54.335938 33.328125 54 C 33.195312 53.664062 33.007812 53.402344 32.753906 53.207031 C 32.507812 53.011719 32.175781 52.914062 31.757812 52.914062 C 31.339844 52.914062 31.015625 53.011719 30.761719 53.207031 C 30.515625 53.402344 30.320312 53.671875 30.179688 54.015625 C 30.050781 54.351562 29.953125 54.742188 29.902344 55.191406 C 29.863281 55.640625 29.847656 56.125 29.847656 56.640625 M 27.402344 56.640625 C 27.402344 54.800781 27.789062 53.410156 28.554688 52.480469 C 29.324219 51.53125 30.394531 51.066406 31.757812 51.066406 C 33.179688 51.066406 34.257812 51.53125 35 52.480469 C 35.746094 53.410156 36.121094 54.800781 36.121094 56.640625 C 36.121094 58.484375 35.738281 59.875 34.984375 60.820312 C 34.226562 61.753906 33.164062 62.21875 31.78125 62.21875 C 30.359375 62.21875 29.273438 61.753906 28.515625 60.820312 C 27.769531 59.875 27.402344 58.484375 27.402344 56.640625 "/>
<path style=" stroke:none;fill-rule:evenodd;fill:rgb(97.647059%,97.647059%,97.647059%);fill-opacity:1;" d="M 18 0 L 24 0 L 24 6 L 18 6 Z M 18 0 "/>
<path style=" stroke:none;fill-rule:nonzero;fill:rgb(100%,100%,100%);fill-opacity:1;" d="M 39.617188 56.640625 C 39.617188 57.160156 39.632812 57.652344 39.675781 58.109375 C 39.722656 58.558594 39.820312 58.949219 39.953125 59.285156 C 40.089844 59.621094 40.285156 59.882812 40.53125 60.078125 C 40.785156 60.273438 41.113281 60.371094 41.527344 60.371094 C 41.9375 60.371094 42.265625 60.273438 42.507812 60.078125 C 42.769531 59.882812 42.964844 59.621094 43.097656 59.285156 C 43.234375 58.933594 43.324219 58.542969 43.367188 58.09375 C 43.417969 57.644531 43.449219 57.160156 43.449219 56.640625 C 43.449219 56.125 43.417969 55.640625 43.367188 55.191406 C 43.328125 54.726562 43.234375 54.335938 43.097656 54 C 42.964844 53.664062 42.777344 53.402344 42.527344 53.207031 C 42.28125 53.011719 41.945312 52.914062 41.527344 52.914062 C 41.113281 52.914062 40.785156 53.011719 40.53125 53.207031 C 40.285156 53.402344 40.089844 53.671875 39.953125 54.015625 C 39.820312 54.351562 39.722656 54.742188 39.675781 55.191406 C 39.632812 55.640625 39.617188 56.125 39.617188 56.640625 M 37.175781 56.640625 C 37.175781 54.800781 37.558594 53.410156 38.328125 52.480469 C 39.09375 51.53125 40.164062 51.066406 41.527344 51.066406 C 42.949219 51.066406 44.027344 51.53125 44.773438 52.480469 C 45.515625 53.410156 45.890625 54.800781 45.890625 56.640625 C 45.890625 58.484375 45.507812 59.875 44.757812 60.820312 C 43.996094 61.753906 42.933594 62.21875 41.554688 62.21875 C 40.132812 62.21875 39.046875 61.753906 38.285156 60.820312 C 37.542969 59.875 37.175781 58.484375 37.175781 56.640625 "/>
<path style=" stroke:none;fill-rule:evenodd;fill:rgb(97.647059%,97.647059%,97.647059%);fill-opacity:1;" d="M 24 6 L 30 6 L 30 12 L 24 12 Z M 24 6 "/>
<path style=" stroke:none;fill-rule:evenodd;fill:rgb(97.647059%,97.647059%,97.647059%);fill-opacity:1;" d="M 18 12 L 24 12 L 24 18 L 18 18 Z M 18 12 "/>
<path style=" stroke:none;fill-rule:evenodd;fill:rgb(97.647059%,97.647059%,97.647059%);fill-opacity:1;" d="M 24 18 L 30 18 L 30 24 L 24 24 Z M 24 18 "/>
<path style=" stroke:none;fill-rule:evenodd;fill:rgb(97.647059%,97.647059%,97.647059%);fill-opacity:1;" d="M 18 24 L 24 24 L 24 30 L 18 30 Z M 18 24 "/>
<path style=" stroke:none;fill-rule:evenodd;fill:rgb(97.647059%,97.647059%,97.647059%);fill-opacity:1;" d="M 18 32 L 30 32 L 30 44 L 18 44 Z M 18 32 "/>
</g>
</svg>

<svg xmlns="http://www.w3.org/2000/svg" viewBox="0 0 64 64">
 <g>
  <path d="m 10.672 0 c -1.375 0 -2.672 1.355 -2.672 2.789 l 0 58.42 c 0 1.355 1.375 2.789 2.672 2.789 l 42.656 0 c 1.297 0 2.672 -1.434 2.672 -2.789 l 0 -43.21 l -18 -18 m -27.328 0" style="fill:#c19553;fill-opacity:1;stroke:none;fill-rule:nonzero"/>
  <path d="m 8 48 l 0 13.336 c 0 1.297 1.375 2.664 2.664 2.664 l 42.672 0 c 1.289 0 2.664 -1.367 2.664 -2.664 l 0 -13.336 m -48 0" style="fill:#000;fill-opacity:0.196;stroke:none;fill-rule:nonzero"/>
  <path d="m 42 18 l 14 14 l 0 -14 m -14 0" style="fill:#000;fill-opacity:0.196;stroke:none;fill-rule:nonzero"/>
  <path d="m 25.801 52.789 c -0.563 0.762 -1.078 1.473 -1.543 2.141 c -0.473 0.672 -0.906 1.309 -1.316 1.922 c -0.398 0.598 -0.781 1.176 -1.152 1.738 c -0.348 0.559 -0.684 1.105 -1.012 1.645 l 5.195 0 l 0 1.754 l -7.973 0 l 0 -1.223 c 0.285 -0.492 0.598 -1.016 0.922 -1.555 c 0.328 -0.547 0.688 -1.133 1.098 -1.754 c 0.398 -0.621 0.84 -1.301 1.305 -2.027 c 0.484 -0.719 1.016 -1.512 1.586 -2.359 l -4.656 0 l 0 -1.766 l 7.547 0 l 0 1.484" style="fill:#fff;fill-opacity:1;stroke:none;fill-rule:nonzero"/>
  <path d="m 38 0 l 17.984 18 l -15.227 0 c -1.348 0 -2.758 -1.426 -2.758 -2.773 m 0 -15.227" style="fill:#fff;fill-opacity:0.392;stroke:none;fill-rule:nonzero"/>
  <path d="m 29.848 56.641 c 0 0.52 0.016 1.012 0.055 1.469 c 0.051 0.449 0.148 0.84 0.277 1.176 c 0.141 0.336 0.336 0.598 0.582 0.793 c 0.254 0.195 0.578 0.293 0.996 0.293 c 0.41 0 0.734 -0.098 0.98 -0.293 c 0.262 -0.195 0.457 -0.457 0.59 -0.793 c 0.137 -0.352 0.227 -0.742 0.27 -1.191 c 0.047 -0.449 0.078 -0.934 0.078 -1.453 c 0 -0.516 -0.031 -1 -0.078 -1.449 c -0.043 -0.465 -0.133 -0.855 -0.27 -1.191 c -0.133 -0.336 -0.32 -0.598 -0.574 -0.793 c -0.246 -0.195 -0.578 -0.293 -0.996 -0.293 c -0.418 0 -0.742 0.098 -0.996 0.293 c -0.246 0.195 -0.441 0.465 -0.582 0.809 c -0.129 0.336 -0.227 0.727 -0.277 1.176 c -0.039 0.449 -0.055 0.934 -0.055 1.449 m -2.445 0 c 0 -1.84 0.387 -3.23 1.152 -4.16 c 0.77 -0.949 1.84 -1.414 3.203 -1.414 c 1.422 0 2.5 0.465 3.242 1.414 c 0.746 0.93 1.121 2.32 1.121 4.16 c 0 1.844 -0.383 3.234 -1.137 4.18 c -0.758 0.934 -1.82 1.398 -3.203 1.398 c -1.422 0 -2.508 -0.465 -3.266 -1.398 c -0.746 -0.945 -1.113 -2.336 -1.113 -4.18" style="fill:#fff;fill-opacity:1;stroke:none;fill-rule:nonzero"/>
  <path d="m 18 0 l 6 0 l 0 6 l -6 0 m 0 -6" style="fill:#f9f9f9;fill-opacity:1;stroke:none;fill-rule:evenodd"/>
  <path d="m 39.617 56.641 c 0 0.52 0.016 1.012 0.059 1.469 c 0.047 0.449 0.145 0.84 0.277 1.176 c 0.137 0.336 0.332 0.598 0.578 0.793 c 0.254 0.195 0.582 0.293 0.996 0.293 c 0.41 0 0.738 -0.098 0.98 -0.293 c 0.262 -0.195 0.457 -0.457 0.59 -0.793 c 0.137 -0.352 0.227 -0.742 0.27 -1.191 c 0.051 -0.449 0.082 -0.934 0.082 -1.453 c 0 -0.516 -0.031 -1 -0.082 -1.449 c -0.039 -0.465 -0.133 -0.855 -0.27 -1.191 c -0.133 -0.336 -0.32 -0.598 -0.57 -0.793 c -0.246 -0.195 -0.582 -0.293 -1 -0.293 c -0.414 0 -0.742 0.098 -0.996 0.293 c -0.246 0.195 -0.441 0.465 -0.578 0.809 c -0.133 0.336 -0.23 0.727 -0.277 1.176 c -0.043 0.449 -0.059 0.934 -0.059 1.449 m -2.441 0 c 0 -1.84 0.383 -3.23 1.152 -4.16 c 0.766 -0.949 1.836 -1.414 3.199 -1.414 c 1.422 0 2.5 0.465 3.246 1.414 c 0.742 0.93 1.117 2.32 1.117 4.16 c 0 1.844 -0.383 3.234 -1.133 4.18 c -0.762 0.934 -1.824 1.398 -3.203 1.398 c -1.422 0 -2.508 -0.465 -3.27 -1.398 c -0.742 -0.945 -1.109 -2.336 -1.109 -4.18" style="fill:#fff;fill-opacity:1;stroke:none;fill-rule:nonzero"/>
  <path d="m 24 6 l 6 0 l 0 6 l -6 0 m 0 -6" style="fill:#f9f9f9;fill-opacity:1;stroke:none;fill-rule:evenodd"/>
  <path d="m 18 12 l 6 0 l 0 6 l -6 0 m 0 -6" style="fill:#f9f9f9;fill-opacity:1;stroke:none;fill-rule:evenodd"/>
  <path d="m 24 18 l 6 0 l 0 6 l -6 0 m 0 -6" style="fill:#f9f9f9;fill-opacity:1;stroke:none;fill-rule:evenodd"/>
  <path d="m 18 24 l 6 0 l 0 6 l -6 0 m 0 -6" style="fill:#f9f9f9;fill-opacity:1;stroke:none;fill-rule:evenodd"/>
  <path d="m 18 32 l 12 0 l 0 12 l -12 0 m 0 -12" style="fill:#f9f9f9;fill-opacity:1;stroke:none;fill-rule:evenodd"/>
 </g>
</svg>
